eye-check-outline.svg

<svg fill="currentColor" viewBox="0 0 24 24"><path d="m23.5 17-5 5-3.5-3.5 1.5-1.5 2 2 3.5-3.5zM12 9a3 3 0 0 1 3 3 3 3 0 0 1-3 3 3 3 0 0 1-3-3 3 3 0 0 1 3-3m0-4.5c5 0 9.27 3.11 11 7.5-.25.65-.56 1.26-.92 1.85a5.8 5.8 0 0 0-1.9-.73l.64-1.12a9.821 9.821 0 0 0-17.64 0A9.82 9.82 0 0 0 12 17.5l1.21-.07c-.14.5-.21 1.03-.21 1.57v.46l-1 .04c-5 0-9.27-3.11-11-7.5 1.73-4.39 6-7.5 11-7.5"/></svg>

<svg  viewBox="0 0 24 24" fill="currentColor"><path  d="M23.5,17L18.5,22L15,18.5L16.5,17L18.5,19L22,15.5L23.5,17M12,9A3,3 0 0,1 15,12A3,3 0 0,1 12,15A3,3 0 0,1 9,12A3,3 0 0,1 12,9M12,4.5C17,4.5 21.27,7.61 23,12C22.75,12.65 22.44,13.26 22.08,13.85C21.5,13.5 20.86,13.25 20.18,13.12L20.82,12C19.17,8.64 15.76,6.5 12,6.5C8.24,6.5 4.83,8.64 3.18,12C4.83,15.36 8.24,17.5 12,17.5L13.21,17.43C13.07,17.93 13,18.46 13,19V19.46L12,19.5C7,19.5 2.73,16.39 1,12C2.73,7.61 7,4.5 12,4.5Z"/></svg>
